X:113
T:Childgrove
M:2/2
L:1/8
K:D dor
"Dm"A2 d2 d2 e2|f4 e2 d2|"G"g3 f e2 d2|"A"e3 d ^cB AG|
"Dm"A2 d2 d2 e2|f4 e2 a2|"G"g2 f2 "A"efed|1"Dm"d8:|2"Dm"d6 fg||
"F"a2 f2 f2 a2|"C"g2 e2 e2 g2|"Dm"f3 e defd|"A"e2 ^c2 A2 fg|
"F"a2 f2 f2 a2|"C"g3 f efge|"Dm"f2 ed "A"e2 d^c|1"Dm"d6 fg:|2"D Maj"d8||
